usr/share/icons/biglinux-icons-material-dark/22/actions/view-categories-expenditures.svg

<svg xmlns="http://www.w3.org/2000/svg" viewBox="0 0 22 22">
<defs id="defs3051">
<style id="current-color-scheme" type="text/css">
.ColorScheme-Text{color:#dedede}
</style>
</defs>
<path d="M3 3v3h1V4h14v5h1V3zm0 4v12h6v-1H4V8h8v1h1V7zm2 3v1h4v-1zm0 3v1h2v-1zm0 2v1h4v-1z" class="ColorScheme-Text" style="fill:currentColor;fill-opacity:1;stroke:none"/>
<path d="M10 10v9h9v-9zm1 1h7v7h-7zm1 1v2h5v-2zm2 3v1h1v-1zm2 0v1h1v-1z" style="fill:#da4453;fill-opacity:1;stroke:none"/>
</svg>

<svg xmlns="http://www.w3.org/2000/svg" viewBox="0 0 22 22">
  <defs id="defs3051">
    <style type="text/css" id="current-color-scheme">
      .ColorScheme-Text {
        color:#dedede;
      }
      .ColorScheme-Highlight {
        color:#3daee9;
      }
      </style>
  </defs>
 <path 
     style="fill:currentColor;fill-opacity:1;stroke:none" 
     d="M 3 3 L 3 4 L 3 6 L 4 6 L 4 4 L 18 4 L 18 9 L 19 9 L 19 3 L 3 3 z M 3 7 L 3 8 L 3 19 L 4 19 L 9 19 L 9 18 L 4 18 L 4 8 L 12 8 L 12 9 L 13 9 L 13 7 L 3 7 z M 5 10 L 5 11 L 9 11 L 9 10 L 5 10 z M 5 13 L 5 14 L 7 14 L 7 13 L 5 13 z M 5 15 L 5 16 L 9 16 L 9 15 L 5 15 z "
     class="ColorScheme-Text"
     />
 <path 
     style="fill:#da4453;fill-opacity:1;stroke:none" 
     d="M 10 10 L 10 11 L 10 19 L 11 19 L 18 19 L 19 19 L 19 11 L 19 10 L 10 10 z M 11 11 L 18 11 L 18 18 L 11 18 L 11 11 z M 12 12 L 12 14 L 17 14 L 17 12 L 12 12 z M 14 15 L 14 16 L 15 16 L 15 15 L 14 15 z M 16 15 L 16 16 L 17 16 L 17 15 L 16 15 z "
     />
</svg>
